X:1
T: the New Town of Edinburgh
C:Iain MacPhail ()
S:Radio Scotland, Dec 1991
N:As played by the Iain MacPhail Band
Z:Nigel Gatherer <gatherer@argonet.co.UK>
M:4/4
L:1/8
K:D
A2 \
| d2cd BdAG | FGAG FDAc | d2cd BdAd | GdFd E3A | d2cd BdAG |
| FGAG FAFD | B,DGB cABc | dDDC D2 |[| A2 | F2=F^F EFDE | FDFA GFED |
| G2FG =FGE^F | GFGA BABd | F2^E^F EFDE | FDFA GFED | B,DGB cABc | dDDC D2 |]
